X: 2
T: Stan Chapman's
R: jig
M: 6/8
L: 1/8
K: Amaj
|: F | ~E3 EFA | ~B3 Bce | fea fec | ecA BAF |~E3 EFA | ~B3 Bce | fea fec | [1 ecA A2 :| [2 ecA A2 |||:cd | e3 ece |~f3 fga|edc BAB | cAF Faf|e3 ece | ~f3 fga | fec BAB | cAA Acd |e3 ece | ~f3 fga|edc BAB | cAF Faf |ece ece | ~f3 fga | fec BAB | cAA A2 ||


Tune 324	Setting 13099

